X:1
T:La mal-aimable (Jean-Christophe Lequerr?)
R:Waltz
C:Trad 1, 103
M:3/4
L:1/8
K:C
e2c2B2|A2 FA Bc|B2 GB cd|e2 Be Be|\
e2 (3cdc (3BcB|A2 FA Bc|B2 GB cd|B6:|
c2 Ac Ac|f2 cf cf|B2 GB GB|e2 Be Be|\
A2 FA FA|d2 Ad Ad|B2 eB eB|d2 (3cdc (3BcB|
cA Ac Ac|fc cf cf|BG GB GB|eB Be Be|\
A2 FA FA|d2 Ad Ad|B2 EB cB|A6|]
<end>
<start>
